!!!COM: Palestrina, Giovanni Perluigi da
!!!OPR: Missa Gia fu chi m'ebbe cara
!!!OTL: Agnus
**kern	**kern	**kern	**kern
*Ibass	*Itenor	*Icalto	*Icant
!Bassus	!Tenor	!Altus	!Cantus
*clefF4	*clefGv2	*clefG2	*clefG2
*k[]	*k[]	*k[]	*k[]
*D:dor	*D:dor	*D:dor	*D:dor
*M4/2	*M4/2	*M4/2	*M4/2
=1	=1	=1	=1
0r	1A	0r	0r
.	2.c	.	.
.	4B	.	.
=2	=2	=2	=2
0r	2c	1e	0r
.	2A	.	.
.	2G	2.g	.
.	4c	.	.
.	4d	4f	.
=3	=3	=3	=3
0r	4e	2g	1r
.	4f	.	.
.	2g	2e	.
.	2f	2d	1a
.	[2a	[2f	.
=4	=4	=4	=4
0r	2a]	2f]	2.cc
.	1g	2e	.
.	.	.	4b
.	.	2c	2cc
.	2f	2d	2a
=5	=5	=5	=5
0r	2g	2e	2g
.	2f	2a	4cc
.	.	.	4dd
.	2c	2cc	4ee
.	.	.	4ff
.	2e	2g	[2gg
=6	=6	=6	=6
1r	1d	1a	2gg]
.	.	.	2ff
1A	1c	2r	2.ee
.	.	2e	.
.	.	.	4dd
=7	=7	=7	=7
2.c	0r	2.e	4cc
.	.	.	4b
.	.	.	2a
4B	.	4d	.
2c	.	2e	2g
2A	.	2f	2cc
=8	=8	=8	=8
2G	1d	2g	2b
1B-	.	2.f	1dd
.	2.f	.	.
.	.	4g	.
2A	.	[2a	[2cc
.	4e	.	.
=9	=9	=9	=9
2F	2f	2a]	2cc]
2G	2d	4g	2.b-
.	.	4f	.
1A	2c	2e	.
.	.	.	4a
.	2c	[2f	[2a
=10	=10	=10	=10
1B-	1d	2f]	2a]
.	.	4e	2g
.	.	4d	.
1A	2e	2c	1a
.	2e	2c	.
=11	=11	=11	=11
0r	2f	2d	2r
.	2e	2e	2g
.	1d	1f	2a
.	.	.	2b
=12	=12	=12	=12
1r	1A	4e	1cc
.	.	4d	.
.	.	4e	.
.	.	4f	.
1G	1r	2g	4b
.	.	.	4cc
.	.	2g	4dd
.	.	.	4b
=13	=13	=13	=13
2A	1r	1f	2cc
2B	.	.	2dd
1c	2r	2.e	1ee
.	2c	.	.
.	.	4f	.
=14	=14	=14	=14
2B	2d	2g	2dd
2c	2e	1a	1cc
1d	1f	.	.
.	.	4g	2b
.	.	4f	.
=15	=15	=15	=15
0c	2e	2g	0cc
.	2f	2.f	.
.	1g	.	.
.	.	8e	.
.	.	8d	.
.	.	2e	.
=16	=16	=16	=16
1F	2a	2f	2r
.	2A	2a	2cc
1r	2B	1g	2dd
.	2c	.	2ee
=17	=17	=17	=17
0r	1d	4f	1ff
.	.	4g	.
.	.	4a	.
.	.	4b	.
.	2c	2cc	2ee
.	2d	4b	4dd
.	.	4a	4cc
=18	=18	=18	=18
1r	1e	2g	2b
.	.	1a	2cc
1E	1e	.	1b
.	.	2g#	.
=19	=19	=19	=19
2F	2r	2a	2a
2G	2e	4g	2b
.	.	4f	.
1A	2e	2e	1cc
.	2f	2A	.
=20	=20	=20	=20
2G	2g	2B	2b
2A	1f	2c	1a
1B-	.	1d	.
.	4e	.	2g
.	4d	.	.
=21	=21	=21	=21
0A	2e	2c	0a
.	1d	2d	.
.	.	1e	.
.	2c#	.	.
=22	=22	=22	=22
2r	2d	2f	0r
1d	1f	1b-	.
[2c	[2e	2a	.
=23	=23	=23	=23
2c]	2e]	1g	0r
1B-	1d	.	.
.	.	1f	.
2A	2c	.	.
=24	=24	=24	=24
1G	2.d	1.b-	2r
.	.	.	1dd
.	4e	.	.
1F	1f	.	.
.	.	2a	[2cc
=25	=25	=25	=25
0r	2e	2g	2cc]
.	2d	2f	1b-
.	[1c	2e	.
.	.	[2f	2a
=26	=26	=26	=26
1r	1c]	2f]	1g
.	.	2e	.
2r	2r	2d	2.f
[2F	[2a	4c	.
.	.	4B	4e
=27	=27	=27	=27
2F]	2a]	1c	2f
2E	1g	.	2g
1D	.	2r	1a
.	[2f	[2a	.
=28	=28	=28	=28
1C	2f]	2a]	1r
.	2e	1g	.
2.D	1d	.	2r
.	.	[2f	[2dd
4E	.	.	.
=29	=29	=29	=29
1.F	2A	2f]	2dd]
.	1a	2e	1cc
.	.	[1d	.
2G	2g	.	[2b-
=30	=30	=30	=30
1A	2f	2d]	2b-]
.	2.e	2c	2.a
1B-	.	2.d	.
.	4d	.	8g
.	.	.	8f
.	2d	.	2g
.	.	4d	.
=31	=31	=31	=31
0A	2c#	2e	0a
.	1d	2f	.
.	.	1e	.
.	2c#	.	.
=32	=32	=32	=32
0D	0d	0f#	0a
==	==	==	==
*-	*-	*-	*-
!!!CDT: 1525/^1526/-1594/2/2
!!!OCY: Italia
!!!AGN: Mass (Parody)
!!!AST: renaissance, vocal
!!!ASW: Madrigal 1555 (Palestrina)
!!!PWK: Masses, Book 10
!!!RNB: Cadence finals: A
!!!YOR: Le Opere Complete, v. 27, p. 30
!!!YOO: Rome, Italy: Fratelli Scalera
!!!END: 1992//
!!!EED: John Miller
!!!YEC: Copyright 2000, John Miller
!!!YEN: United States of America
!!!YEM: Rights to all derivative electronic formats reserved.
!!!YEM: Refer to licensing agreement for further details.
!!!YEM: This file must be accompanied by the licensing agreement.
!!!YEM: A copy of the licensing agreement may be found at http://www.music-cog.ohio-state.edu/HumdrumDatabases/Palestrina/license.txt
!!!EMD: converted to Humdrum by Bret Aarden
